!!!COM: Anon.
!!!OCL: Francis James Child
!!!OPR: The English and Scottish Popular Ballads
!!!OVM: Vol. 1
!!!ONB: Ballad No. 39, Tune No. 1
!!!ONM: No. 39
!!!PDT: 1882
!!!YEM: Public domain.
**kern
*M4/4
{4d
=1
4g
4b
4a
8d
8d
=2
4f
4g
4d
4c
=3
4b
4cc
4dd
4dd
=4
2.dd}
!! Second phrase:
{4g
=5
4b
4g
4b
4cc
=6
4dd
4cc
4b
4b
=7
4a
4g
4f
4a
=8
2.d}
!! Third phrase:
{4g
=9
4b
4g
4b
4cc
=10
4dd
4cc
4dd
4b
=11
4b
4a
4g
4b
=12
2.d}
!! Fourth phrase:
{4d
=13
4.g
8a
4b
4d
=14
4f
4g
4.d
8cc
=15
8.b
16cc
4dd
4dd
4dd
=16
2.dd}
====
*-
!!!OCY: Britain; England
!!!PPP: Boston
!!!ODT: <1882
!!!AFR: folk song
!!!AST: monophony
!!!AMT: simple quadruple
!!!SCA: Child Collection
!!!AIN: vox
!!!EEV: 1.0
!!!RDT: 1987 June
!!!YER: 1994 August 10
!!!VTS: 652652838
